assets/images/sections/hero/bg.svg

<svg width="503" height="424" viewBox="0 0 503 424" fill="none" xmlns="http://www.w3.org/2000/svg">
<path opacity="0.3" d="M748.453 82.7723C748.453 270.943 593.157 423.5 401.571 423.5C209.984 423.5 54.6878 270.943 54.6878 82.7723C54.6878 -105.398 209.984 -257.955 401.571 -257.955C593.157 -257.955 748.453 -105.398 748.453 82.7723Z" stroke="#151E34"/>
<path opacity="0.3" d="M694.266 -2.77228C694.266 185.398 538.969 337.955 347.383 337.955C155.796 337.955 0.5 185.398 0.5 -2.77228C0.5 -190.943 155.796 -343.5 347.383 -343.5C538.969 -343.5 694.266 -190.943 694.266 -2.77228Z" stroke="#12A682"/>
<path opacity="0.1" d="M800.706 82.7723C800.706 270.943 645.41 423.5 453.823 423.5C262.237 423.5 106.94 270.943 106.94 82.7723C106.94 -105.398 262.237 -257.955 453.823 -257.955C645.41 -257.955 800.706 -105.398 800.706 82.7723Z" fill="#12A682" stroke="#151E34"/>
</svg>

<svg width="503" height="424" fill="none" xmlns="http://www.w3.org/2000/svg"><path opacity=".3" d="M748.453 82.772c0 188.171-155.296 340.728-346.882 340.728-191.587 0-346.883-152.557-346.883-340.728 0-188.17 155.296-340.727 346.883-340.727 191.586 0 346.882 152.557 346.882 340.727z" stroke="#151E34"/><path opacity=".3" d="M694.266-2.772c0 188.17-155.297 340.727-346.883 340.727C155.796 337.955.5 185.398.5-2.772.5-190.943 155.796-343.5 347.383-343.5c191.586 0 346.883 152.557 346.883 340.728z" stroke="#12A682"/><path opacity=".1" d="M800.706 82.772c0 188.171-155.296 340.728-346.883 340.728-191.586 0-346.883-152.557-346.883-340.728 0-188.17 155.297-340.727 346.883-340.727 191.587 0 346.883 152.557 346.883 340.727z" fill="#12A682" stroke="#151E34"/></svg>
